X: 290
T: Green Shady Bowers
B: O'Neill's 290
N: "Animated"
Z: 1997 by John Chambers <jc@trillian.mit.edu>
N: Bars 4 and 12 obviously have typos.
M: 2/4
L: 1/8
K:A
(c/B/) \
| A>B (AF) | (FE) .E(B/c/)  | .d.d (cB) | c3 AB \
| (cf) (fe) | (c>d) .e(c/B/) | A>B c^d | e3 A/B/ |
| (cf) fe | c>d .e(c/B/) | (BA) (FE) | E3 (cd) \
| .e.e .f(e/d/) | cA FE | E>F AA | A3 ||


